!!!OTL: Graf und Nonne (Die Nonne) Du hast gesagt du naehmest mich,
!!!ARE: Europa, Suedosteuropa, Jugoslavija, Batschka
!!!YOR: 8, S. 288
!!    ???? aufgezeichnet
!!!SCT: Q01559
!!!YEM: Copyright 1995, estate of Helmut Schaffrath.
**kern
*ICvox
*Ivox
*M2/4
*k[f#]
*G:
{8d
=1
8g
8g
8f#
8e
=2
8e
8d
8d}
{8d
=3
8g
8g
8a
8d
=4
4b
8r}
{8dd
=5
8.b
16b
8b
8b
=6
8b
8dd
8dd}
{8b
=7
8cc
8b
8a
8g
=8
8f#
8e
8d}
{16d
16d
=9
8b
8b
8a
8a
=10
4g
8r}
{8dd
=11
8.b
16b
8b
8b
=12
8b
8dd
8dd}
{8b
=13
8cc
8b
8a
8g
=14
8f#
8e
8d}
{16d
16d
=15
8b
8b
8a
8a
=16
4g
8r}
==
!!!AGN: Ballade, Standesunterschied, vergebliche Werbung, Liebes - Lied
!!!ONB: ESAC (Essen Associative Code) Database: BALLADE
!!!AMT: simple duple
!!!AIN: vox
!!!EED: Helmut Schaffrath
!!!EEV: 1.0
*-
